X:1
T:Laetatus sum
T:Constantijn Huygens
T:Laetatus sum 
T:Psalmus 122:1,2,3a
C:Constantijn Huygens
%%score 1 { ( 2 3 ) | 4 }
L:1/8
Q:1/4=102
M:3/4
K:D
V:1 treble nm="Soprano" snm="S"
V:2 treble nm="Organ" snm="Org."
V:3 treble 
V:4 bass 
V:1
 A2 d3 A | B2 e2 c>d | d4 A2 |[M:4/4] d3 =c B3 B | AG F4 FF | F2 E2 F4 | z ccd e>e e2 | z ABc d4- | %8
w: Lae- ta- tus|sum, lae- ta- tus-|sum, lae-|ta- tus- sum in|his quae dic- ta sunt|mi- * hi:|In do- mum Do- mi- ni,|in do- mum Do-|
 d2 cc B3 A | A8 ::[M:3/4] F4 F2 | F2 F2 FF | F2 F2 F2 |[M:4/4] G6 AA | B2 EF F3 E | %15
w: * mi- ni i- bi-|mus.|Stan- tes|e- rant pe- des|nos- tri, in|a- tri- is|tu- is, Je- ru- sa-|
 !fermata!E2 F4 ED |[M:3/4] D2 A2 AA | B2 B>B B>B | c2 A2 d2- | d2 cd d2 | F4 ED | D6 :| %22
w: lem. Je- ru- sa-|lem, Je- ru- sa-|lem, quae ae- di- fi-|ca- tur ut|_ ci- vi- tas,|ut ci- vi-|tas.|
V:2
 f6- | f2 e4 | d4 e2 |[M:4/4] B8 | c2 d6 | c2 B2 ^A4 | !courtesy!=A8 | A4 B4 | B8 | c8 :: %10
[M:3/4] [DA]4 [DA]2 | [DA]2 [DA]4 | [DA]6 |[M:4/4] [E-G]4 [EA]4 | [DGB]4 [DFA]4 | %15
 [CEA]2 [DFA]2 [CFA]4 |[M:3/4] [FB]2 [Fd]2 [Fc]2 | [Gd]2 [^Ge]2 [Gd]2 | [Ace]2 [Ace]2 [Adf]2 | %19
 [Ae]2 [Ae]2 [df]2 | d2 d3 c | d6 :| %22
V:3
 D2 A2 d2- | dB c2 A2 | G3 F E2 |[M:4/4] D8 | E2 F6 | E4 z CDE | F>F E2 z EFG | F4 z B,CD | E8 | %9
 A2 ABAGFE ::[M:3/4] x6 | x6 | x6 |[M:4/4] x8 | x8 | x8 |[M:3/4] x6 | x6 | x6 | x6 | A2 A3 G | %21
 [FA]6 :| %22
V:4
 z2 z2 D,2 | G,2 E,2 A,2 | D,4 C,2 |[M:4/4] B,,2 F,2 G,4 | A,,2 B,,4 A,,2 | G,4 F,4- | %6
 F,2 E,D, C,4 | D,2 C,2 B,,A,, ^G,,2- | G,,2 A,,2 E,4 | A,,8 ::[M:3/4] D,4 D,2 | D,2 D,4 | D,6 | %13
[M:4/4] B,,4 A,,4 | G,,4 D,4 | A,,4 [A,,A,]4 |[M:3/4] B,,2 F,4 | G,2 E,4 | A,6 | A,,4 B,,2 | %20
 z2 F,,2 A,,2 | D,,6 :| %22

